**harm	**harte	**timestamp	**phrase	**leadinstrument	**kern
*M4/4	*M4/4	*	*	*	*
*A-:	*A-:	*	*	*	*A-:
1r;	N	0	.	r	1r;
=1	=1	=1	=1	=1	=1
*>A_intro	*>A_intro	*>A_intro	*>A_intro	*>A_intro	*>A_intro
1I	A-:maj	0.209	newline	r	1A- 1cc 1ee-
=2	=2	=2	=2	=2	=2
1I	A-:maj	2.749	.	r	1A- 1cc 1ee-
=3	=3	=3	=3	=3	=3
*>B_verse	*>B_verse	*>B_verse	*>B_verse	*>B_verse	*>B_verse
1I	A-:maj	5.29	newline	voice	1A- 1cc 1ee-
=4	=4	=4	=4	=4	=4
1V	E-:maj	7.811	.	voice	1E- 1g 1b-
=5	=5	=5	=5	=5	=5
1V	E-:maj	10.333	.	voice	1E- 1g 1b-
=6	=6	=6	=6	=6	=6
2V	E-:maj	12.854	.	voice	2E- 2g 2b-
2I	A-:maj	14.115	.	voice	2A- 2cc 2ee-
=7	=7	=7	=7	=7	=7
1I	A-:maj	15.376	newline	voice	1A- 1cc 1ee-
=8	=8	=8	=8	=8	=8
1V	E-:maj	17.903	.	voice	1E- 1g 1b-
=9	=9	=9	=9	=9	=9
1V	E-:maj	20.431	.	voice	1E- 1g 1b-
=10	=10	=10	=10	=10	=10
2V	E-:maj	22.959	.	voice	2E- 2g 2b-
2I	A-:maj	24.222	.	voice	2A- 2cc 2ee-
=11	=11	=11	=11	=11	=11
*>C_prechorus	*>C_prechorus	*>C_prechorus	*>C_prechorus	*>C_prechorus	*>C_prechorus
1vi	F:min	25.486	newline	voice	1F 1a- 1cc
=12	=12	=12	=12	=12	=12
1vi	F:min	28.018	.	voice	1F 1a- 1cc
=13	=13	=13	=13	=13	=13
1iii	C:min	30.549	.	voice	1C 1e- 1g
=14	=14	=14	=14	=14	=14
1iii	C:min	33.081	.	voice	1C 1e- 1g
=15	=15	=15	=15	=15	=15
1IV	D-:maj	35.613	newline	voice	1D- 1f 1a-
=16	=16	=16	=16	=16	=16
*M2/4	*M2/4	*M2/4	*M2/4	*M2/4	*M2/4
2ii	B-:min	38.094	.	voice	2B- 2dd- 2ff
=17	=17	=17	=17	=17	=17
*>D_chorus	*>D_chorus	*>D_chorus	*>D_chorus	*>D_chorus	*>D_chorus
*M4/4	*M4/4	*M4/4	*M4/4	*M4/4	*M4/4
1I	A-:maj	39.335	newline	voice	1A- 1cc 1ee-
=18	=18	=18	=18	=18	=18
1vi	F:min	41.878	.	voice	1F 1a- 1cc
=19	=19	=19	=19	=19	=19
1IV	D-:maj	44.421	.	voice	1D- 1f 1a-
=20	=20	=20	=20	=20	=20
2ii	B-:min	46.964	.	voice	2B- 2dd- 2ff
2V	E-:sus4	48.235	.	voice	2E- 2g 2b-
=21	=21	=21	=21	=21	=21
1I	A-:maj	49.507	newline	voice	1A- 1cc 1ee-
=22	=22	=22	=22	=22	=22
1vi	F:min	52.023	.	voice	1F 1a- 1cc
=23	=23	=23	=23	=23	=23
1IV	D-:maj	54.539	.	voice	1D- 1f 1a-
=24	=24	=24	=24	=24	=24
2ii	B-:min	57.055	.	voice	2B- 2dd- 2ff
2V	E-:sus4	58.313	.	voice	2E- 2g 2b-
=25	=25	=25	=25	=25	=25
1I	A-:maj	59.571	newline	voice	1A- 1cc 1ee-
=26	=26	=26	=26	=26	=26
1vi	F:min	62.095	.	voice	1F 1a- 1cc
=27	=27	=27	=27	=27	=27
1iii	C:min	64.619	.	voice	1C 1e- 1g
=28	=28	=28	=28	=28	=28
*>B_verse	*>B_verse	*>B_verse	*>B_verse	*>B_verse	*>B_verse
1I	A-:maj	67.143	newline	voice	1A- 1cc 1ee-
=29	=29	=29	=29	=29	=29
1V	E-:maj	69.663	.	voice	1E- 1g 1b-
=30	=30	=30	=30	=30	=30
1V	E-:maj	72.183	.	voice	1E- 1g 1b-
=31	=31	=31	=31	=31	=31
2V	E-:maj	74.703	.	voice	2E- 2g 2b-
2I	A-:maj	75.963	.	voice	2A- 2cc 2ee-
=32	=32	=32	=32	=32	=32
1I	A-:maj	77.223	newline	voice	1A- 1cc 1ee-
=33	=33	=33	=33	=33	=33
1V	E-:maj	79.733	.	voice	1E- 1g 1b-
=34	=34	=34	=34	=34	=34
1V	E-:maj	82.243	.	voice	1E- 1g 1b-
=35	=35	=35	=35	=35	=35
2V	E-:maj	84.753	.	voice	2E- 2g 2b-
2I	A-:maj	86.008	.	voice	2A- 2cc 2ee-
=36	=36	=36	=36	=36	=36
*>C_prechorus	*>C_prechorus	*>C_prechorus	*>C_prechorus	*>C_prechorus	*>C_prechorus
1vi	F:min	87.263	newline	voice	1F 1a- 1cc
=37	=37	=37	=37	=37	=37
1vi	F:min	89.811	.	voice	1F 1a- 1cc
=38	=38	=38	=38	=38	=38
1iii	C:min	92.36	.	voice	1C 1e- 1g
=39	=39	=39	=39	=39	=39
1iii	C:min	94.908	.	voice	1C 1e- 1g
=40	=40	=40	=40	=40	=40
1IV	D-:maj	97.457	newline	voice	1D- 1f 1a-
=41	=41	=41	=41	=41	=41
*M2/4	*M2/4	*M2/4	*M2/4	*M2/4	*M2/4
2ii	B-:min	99.953	.	voice	2B- 2dd- 2ff
=42	=42	=42	=42	=42	=42
*>D_chorus	*>D_chorus	*>D_chorus	*>D_chorus	*>D_chorus	*>D_chorus
*M4/4	*M4/4	*M4/4	*M4/4	*M4/4	*M4/4
1I	A-:maj	101.201	newline	voice	1A- 1cc 1ee-
=43	=43	=43	=43	=43	=43
1vi	F:min	103.719	.	voice	1F 1a- 1cc
=44	=44	=44	=44	=44	=44
1IV	D-:maj	106.237	.	voice	1D- 1f 1a-
=45	=45	=45	=45	=45	=45
2ii	B-:min	108.755	.	voice	2B- 2dd- 2ff
2V	E-:sus4	110.014	.	voice	2E- 2g 2b-
=46	=46	=46	=46	=46	=46
1I	A-:maj	111.273	newline	voice	1A- 1cc 1ee-
=47	=47	=47	=47	=47	=47
1vi	F:min	113.801	.	voice	1F 1a- 1cc
=48	=48	=48	=48	=48	=48
1IV	D-:maj	116.328	.	voice	1D- 1f 1a-
=49	=49	=49	=49	=49	=49
2ii	B-:min	118.856	.	voice	2B- 2dd- 2ff
2V	E-:sus4	120.12	.	voice	2E- 2g 2b-
=50	=50	=50	=50	=50	=50
1I	A-:maj	121.384	newline	voice	1A- 1cc 1ee-
=51	=51	=51	=51	=51	=51
1vi	F:min	123.904	.	voice	1F 1a- 1cc
=52	=52	=52	=52	=52	=52
1iii	C:min	126.424	.	voice	1C 1e- 1g
=53	=53	=53	=53	=53	=53
*>B_solo	*>B_solo	*>B_solo	*>B_solo	*>B_solo	*>B_solo
1I	A-:maj	128.945	newline	synthesizer	1A- 1cc 1ee-
=54	=54	=54	=54	=54	=54
1V	E-:maj	131.465	.	synthesizer	1E- 1g 1b-
=55	=55	=55	=55	=55	=55
1V	E-:maj	133.984	.	synthesizer	1E- 1g 1b-
=56	=56	=56	=56	=56	=56
2V	E-:maj	136.504	.	synthesizer	2E- 2g 2b-
2I	A-:maj	137.764	.	synthesizer	2A- 2cc 2ee-
=57	=57	=57	=57	=57	=57
1I	A-:maj	139.024	newline	synthesizer	1A- 1cc 1ee-
=58	=58	=58	=58	=58	=58
1V	E-:maj	141.561	.	synthesizer	1E- 1g 1b-
=59	=59	=59	=59	=59	=59
1V	E-:maj	144.098	.	synthesizer	1E- 1g 1b-
=60	=60	=60	=60	=60	=60
2V	E-:maj	146.634	.	synthesizer	2E- 2g 2b-
2I	A-:maj	147.903	.	synthesizer	2A- 2cc 2ee-
=61	=61	=61	=61	=61	=61
*>C_prechorus	*>C_prechorus	*>C_prechorus	*>C_prechorus	*>C_prechorus	*>C_prechorus
1vi	F:min	149.171	newline	synthesizer	1F 1a- 1cc
=62	=62	=62	=62	=62	=62
1vi	F:min	151.693	.	synthesizer	1F 1a- 1cc
=63	=63	=63	=63	=63	=63
1iii	C:min	154.215	.	synthesizer	1C 1e- 1g
=64	=64	=64	=64	=64	=64
1iii	C:min	156.737	.	synthesizer	1C 1e- 1g
=65	=65	=65	=65	=65	=65
1IV	D-:maj	159.259	newline	synthesizer	1D- 1f 1a-
=66	=66	=66	=66	=66	=66
2ii	B-:min	161.751	.	synthesizer	2B- 2dd- 2ff
2V	E-:maj	162.997	.	synthesizer	2E- 2g 2b-
=67	=67	=67	=67	=67	=67
*>D_chorus	*>D_chorus	*>D_chorus	*>D_chorus	*>D_chorus	*>D_chorus
1I	A-:maj	164.243	newline	synthesizer	1A- 1cc 1ee-
=68	=68	=68	=68	=68	=68
1vi	F:min	166.777	.	synthesizer	1F 1a- 1cc
=69	=69	=69	=69	=69	=69
1IV	D-:maj	169.311	.	synthesizer	1D- 1f 1a-
=70	=70	=70	=70	=70	=70
2ii	B-:min	171.845	.	synthesizer	2B- 2dd- 2ff
2V	E-:sus4	173.113	.	synthesizer	2E- 2g 2b-
=71	=71	=71	=71	=71	=71
1I	A-:maj	174.38	newline	synthesizer	1A- 1cc 1ee-
=72	=72	=72	=72	=72	=72
1vi	F:min	176.906	.	synthesizer	1F 1a- 1cc
=73	=73	=73	=73	=73	=73
1IV	D-:maj	179.433	.	synthesizer	1D- 1f 1a-
=74	=74	=74	=74	=74	=74
2ii	B-:min	181.959	.	synthesizer	2B- 2dd- 2ff
2V	E-:sus4	183.223	.	synthesizer	2E- 2g 2b-
=75	=75	=75	=75	=75	=75
*>D_chorus	*>D_chorus	*>D_chorus	*>D_chorus	*>D_chorus	*>D_chorus
1I	A-:maj	184.486	newline	synthesizer	1A- 1cc 1ee-
=76	=76	=76	=76	=76	=76
1vi	F:min	186.994	.	synthesizer	1F 1a- 1cc
=77	=77	=77	=77	=77	=77
1IV	D-:maj	189.501	.	synthesizer	1D- 1f 1a-
=78	=78	=78	=78	=78	=78
2ii	B-:min	192.009	.	synthesizer	2B- 2dd- 2ff
2V	E-:sus4	193.262	.	synthesizer	2E- 2g 2b-
=79	=79	=79	=79	=79	=79
1I	A-:maj	194.516	newline	synthesizer	1A- 1cc 1ee-
=80	=80	=80	=80	=80	=80
1vi	F:min	197.049	.	synthesizer	1F 1a- 1cc
=81	=81	=81	=81	=81	=81
1IV	D-:maj	199.582	.	synthesizer	1D- 1f 1a-
=82	=82	=82	=82	=82	=82
2ii	B-:min	202.115	.	synthesizer	2B- 2dd- 2ff
2V	E-:sus4	203.382	.	synthesizer	2E- 2g 2b-
=83	=83	=83	=83	=83	=83
1I	A-:maj	204.649	newline	synthesizer	1A- 1cc 1ee-
=84	=84	=84	=84	=84	=84
1vi	F:min	207.183	.	synthesizer	1F 1a- 1cc
=85	=85	=85	=85	=85	=85
1iii	C:min	209.718	.	synthesizer	1C 1e- 1g
=86	=86	=86	=86	=86	=86
*>D2_outro	*>D2_outro	*>D2_outro	*>D2_outro	*>D2_outro	*>D2_outro
1I	A-:maj	212.253	newline	voice	1A- 1cc 1ee-
=87	=87	=87	=87	=87	=87
1vi	F:min	214.784	.	voice	1F 1a- 1cc
=88	=88	=88	=88	=88	=88
1IV	D-:maj	217.315	.	voice	1D- 1f 1a-
=89	=89	=89	=89	=89	=89
2ii	B-:min	219.846	.	voice	2B- 2dd- 2ff
2V	E-:sus4	221.111	.	voice	2E- 2g 2b-
=90	=90	=90	=90	=90	=90
1I	A-:maj	222.376	newline	voice	1A- 1cc 1ee-
=91	=91	=91	=91	=91	=91
1vi	F:min	224.894	.	voice	1F 1a- 1cc
=92	=92	=92	=92	=92	=92
1IV	D-:maj	227.412	.	voice	1D- 1f 1a-
=93	=93	=93	=93	=93	=93
2ii	B-:min	229.93	.	voice	2B- 2dd- 2ff
2V	E-:sus4	231.188	.	voice	2E- 2g 2b-
=94	=94	=94	=94	=94	=94
1I	A-:maj	232.447	newline	voice	1A- 1cc 1ee-
=95	=95	=95	=95	=95	=95
1vi	F:min	234.965	.	voice	1F 1a- 1cc
=96	=96	=96	=96	=96	=96
1IV	D-:maj	237.482	.	voice	1D- 1f 1a-
=97	=97	=97	=97	=97	=97
2ii	B-:min	239.999	.	voice	2B- 2dd- 2ff
2V	E-:sus4	241.258	.	voice	2E- 2g 2b-
=98	=98	=98	=98	=98	=98
*>_fadeout	*>_fadeout	*>_fadeout	*>_fadeout	*>_fadeout	*>_fadeout
1I	A-:maj	242.517	newline	voice	1A- 1cc 1ee-
=99	=99	=99	=99	=99	=99
1vi	F:min	245.052	.	voice	1F 1a- 1cc
=100	=100	=100	=100	=100	=100
1IV	D-:maj	247.587	.	voice	1D- 1f 1a-
=101	=101	=101	=101	=101	=101
2ii	B-:min	250.122	.	voice	2B- 2dd- 2ff
2V	E-:sus4	251.39	.	voice	2E- 2g 2b-
=102	=102	=102	=102	=102	=102
1I	A-:maj	252.658	newline	voice	1A- 1cc 1ee-
=103	=103	=103	=103	=103	=103
1vi	F:min	254.778	.	voice	1F 1a- 1cc
=104	=104	=104	=104	=104	=104
1IV	D-:maj	256.899	.	voice	1D- 1f 1a-
=105	=105	=105	=105	=105	=105
2ii	B-:min	259.019	.	voice	2B- 2dd- 2ff
2V	E-:sus4	260.08	.	voice	2E- 2g 2b-
=106	=106	=106	=106	=106	=106
1I	A-:maj	261.14	.	voice	1A- 1cc 1ee-
=107	=107	=107	=107	=107	=107
1vi	F:min	263.26	.	voice	1F 1a- 1cc
1r;	N	265.381	.	r	1r;
1r;	N	269.845	.	r	1r;
*-	*-	*-	*-	*-	*-
!!!OTL: All Through The Night
!!!COC: Cyndi Lauper
!!!BillboardChartDate: 1984/11/03, 1984/11/10, 1984/12/15
!!!BillboardPeak: 5, 5, 5
!!!BillboardWeeksOnChart: 19, 19, 19
!!!SampleTargetRank: 21, 14, 11
!!!SampleActualRank: 20, 12, 10
!!!SampleID#: 309, 769, 1084
!!!RDF**harmony: **recip + pitch class of root + harmonic quality
!!!RDF**harte: Chris Harte's syntax, used by MIREX
!!!RDF**phrase: newline = linebreak in original McGill transcription
!!!RDF**timestamp: McGill audio timestamp in seconds
!!!RDF**leadinstrument: original McGill primary instrumentation annotation
!!!RDT: 2017/01/12/
!!!ENC: Nathaniel Condit-Schultz
!!!EST: Awating manual error checking and editing.
